assets/images/icons/success.svg

<svg width="16" height="16" viewBox="0 0 16 16" fill="none" xmlns="http://www.w3.org/2000/svg">
<path d="M15.75 8C15.75 3.75 12.25 0.25 8 0.25C3.71875 0.25 0.25 3.75 0.25 8C0.25 12.2812 3.71875 15.75 8 15.75C12.25 15.75 15.75 12.2812 15.75 8ZM7.09375 12.125C6.90625 12.3125 6.5625 12.3125 6.375 12.125L3.125 8.875C2.9375 8.6875 2.9375 8.34375 3.125 8.15625L3.84375 7.46875C4.03125 7.25 4.34375 7.25 4.53125 7.46875L6.75 9.65625L11.4375 4.96875C11.625 4.75 11.9375 4.75 12.125 4.96875L12.8438 5.65625C13.0312 5.84375 13.0312 6.1875 12.8438 6.375L7.09375 12.125Z" fill="#46B450"/>
</svg>

<svg width="16" height="16" fill="none" xmlns="http://www.w3.org/2000/svg"><path d="M15.75 8c0-4.25-3.5-7.75-7.75-7.75C3.719.25.25 3.75.25 8A7.749 7.749 0 008 15.75c4.25 0 7.75-3.469 7.75-7.75zm-8.656 4.125a.53.53 0 01-.719 0l-3.25-3.25a.53.53 0 010-.719l.719-.687a.442.442 0 01.687 0L6.75 9.656l4.688-4.687a.442.442 0 01.687 0l.719.687a.53.53 0 010 .719l-5.75 5.75z" fill="#46B450"/></svg>
